content/_snippets/hardware/10k-resistor/image.svg

<svg width="72" height="17" viewBox="0 0 72 17" fill="none" xmlns="http://www.w3.org/2000/svg">
<path d="M69.01 8.01996L3 8.22998" stroke="#95A5A6" stroke-width="5" stroke-miterlimit="10" stroke-linecap="round"/>
<path d="M45.8001 15.5C46.6101 15.87 48.0001 16.16 48.8901 16.16L53.7301 16.15C55.3501 16.15 56.9501 14.53 56.9501 12.91L56.9201 3.21997C56.9201 1.60997 55.3001 0 53.6801 0L48.8401 0.00994873C47.9501 0.00994873 46.5701 0.319941 45.7601 0.689941L45.5901 0.769958C44.7801 1.13996 43.4001 1.44995 42.5101 1.44995L29.3401 1.48999C28.4501 1.48999 27.0701 1.19996 26.2501 0.829956L26.0801 0.75C25.2701 0.38 23.8801 0.0899658 22.9901 0.0899658L18.1501 0.0999756C16.5301 0.0999756 14.9301 1.72997 14.9301 3.33997L14.9601 13.03C14.9601 14.65 16.5801 16.25 18.2001 16.25L23.0401 16.24C23.9301 16.24 25.3201 15.93 26.1201 15.56L26.2901 15.48C27.1001 15.11 28.4901 14.81 29.3701 14.8L42.5401 14.7599C43.4301 14.7599 44.8201 15.05 45.6301 15.42L45.8001 15.5Z" fill="#E8D4AC"/>
<path d="M48.5901 16.15C48.0401 16.15 47.2701 15.96 47.2701 15.96L47.2201 0.230042C47.2201 0.230042 48.0101 0.0500391 48.3701 0.0400391C48.7301 0.0400391 52.0701 0.0100098 52.0701 0.0100098L52.1201 16.16C52.1101 16.15 49.1401 16.15 48.5901 16.15Z" fill="#8A3D06"/>
<path d="M42.52 14.77C41.85 14.77 39.18 14.78 39.18 14.78L39.14 1.46002C39.14 1.46002 42 1.45001 42.51 1.45001C43.02 1.45001 43.99 1.27002 43.99 1.27002L44.03 14.95C44.04 14.95 43.2 14.77 42.52 14.77Z" fill="black"/>
<path d="M35.9113 1.4652L31.0713 1.4801L31.1123 14.8001L35.9523 14.7852L35.9113 1.4652Z" fill="#FF4D00"/>
<path d="M21.907 0.0997424L20.047 0.105469L20.0967 16.2555L21.9567 16.2498L21.907 0.0997424Z" fill="#BEA95D"/>
</svg>

<svg xmlns="http://www.w3.org/2000/svg" width="72" height="17" fill="none" viewBox="0 0 72 17"><path stroke="#95a5a6" stroke-linecap="round" stroke-miterlimit="10" stroke-width="5" d="M69.01 8.02 3 8.23"/><path fill="#e8d4ac" d="M45.8 15.5c.81.37 2.2.66 3.09.66l4.84-.01c1.62 0 3.22-1.62 3.22-3.24l-.03-9.69C56.92 1.61 55.3 0 53.68 0l-4.84.01c-.89 0-2.27.31-3.08.68l-.17.08c-.81.37-2.19.68-3.08.68l-13.17.04c-.89 0-2.27-.29-3.09-.66l-.17-.08c-.81-.37-2.2-.66-3.09-.66L18.15.1c-1.62 0-3.22 1.63-3.22 3.24l.03 9.69c0 1.62 1.62 3.22 3.24 3.22l4.84-.01c.89 0 2.28-.31 3.08-.68l.17-.08c.81-.37 2.2-.67 3.08-.68l13.17-.04c.89 0 2.28.29 3.09.66z"/><path fill="#8a3d06" d="M48.59 16.15c-.55 0-1.32-.19-1.32-.19L47.22.23s.79-.18 1.15-.19c.36 0 3.7-.03 3.7-.03l.05 16.15c-.01-.01-2.98-.01-3.53-.01"/><path fill="#000" d="M42.52 14.77c-.67 0-3.34.01-3.34.01l-.04-13.32s2.86-.01 3.37-.01 1.48-.18 1.48-.18l.04 13.68c.01 0-.83-.18-1.51-.18"/><path fill="#ff4d00" d="m35.911 1.465-4.84.015.041 13.32 4.84-.015z"/><path fill="#bea95d" d="m21.907.1-1.86.005.05 16.15 1.86-.005z"/></svg>
